svg/message_alert.svg

<svg xmlns="http://www.w3.org/2000/svg" viewBox="0 0 24 24"><path d="M13 11h-2V5h2m0 10h-2v-2h2m7-11H4c-1.1 0-2 .9-2 2v18l4-4h14c1.1 0 2-.9 2-2V4c0-1.1-.9-2-2-2"/></svg>

<?xml version="1.0" encoding="UTF-8"?><!DOCTYPE svg PUBLIC "-//W3C//DTD SVG 1.1//EN" "http://www.w3.org/Graphics/SVG/1.1/DTD/svg11.dtd"><svg xmlns="http://www.w3.org/2000/svg" xmlns:xlink="http://www.w3.org/1999/xlink" version="1.1" id="mdi-message-alert" width="24" height="24" viewBox="0 0 24 24"><path d="M13 11H11V5H13M13 15H11V13H13M20 2H4C2.9 2 2 2.9 2 4V22L6 18H20C21.1 18 22 17.1 22 16V4C22 2.9 21.1 2 20 2Z" /></svg>
